X: 103
T: Cela sans plus
N: Derived from Mar3002-Cela_sans_plus.krn
C: Johannes Martini
%%abc-version 2.0
%%abcx-abcm2ps-target-version 5.9.1 (29 Sep 2008)
%%abc-creator hum2abc beta
%%abcx-conversion-date 2019/02/17 07:19:43
%%abc-edited-by Jesse Rodin
%%abc-edited-by Chris Gage 10-30-2014
%%abcx-initial-encoding-date 2015/03/05/
%%humdrum-veritas 2406604241
%%humdrum-veritas-data 2306054674
%%linebreak <none>
%%barnumbers 0
L: 1/4
M: 2/1
Q: 1/2=120
%%staves [1 2 3 4]
V: 1 clef=treble
V: 2 clef=treble-8
V: 3 clef=treble-8
V: 4 clef=bass
K: F
[V:1] z8 | 
[V:2] g8 | 
[V:3] z8 | 
[V:4] G,6B,2- | 
[V:1] z8 | 
[V:2] f4e4 | 
[V:3] z8 | 
[V:4] B,A,D4C2 | 
[V:1] d8 | 
[V:2] d8 | 
[V:3] z8 | 
[V:4] D2B,4A,G, | 
[V:1] c4B4 | 
[V:2] z8 | 
[V:3] z8 | 
[V:4] A,2F,2G,4 | 
[V:1] A8 | 
[V:2] f8 | 
[V:3] d8 | 
[V:4] D,4z2D,2 | 
[V:1] z8 | 
[V:2] g4g4 | 
[V:3] c4B4 | 
[V:4] E,2F,2G,4 | 
[V:1] c8 | 
[V:2] a3ge2f2 | 
[V:3] A8 | 
[V:4] F,3G,A,4 | 
[V:1] B6AG | 
[V:2] g2d2edcB | 
[V:3] z8 | 
[V:4] G,8 | 
[V:1] A4A4 | 
[V:2] A2F4EF | 
[V:3] c8 | 
[V:4] F,4z4 | 
[V:1] G2FED2G2- | 
[V:2] G2g3fed | 
[V:3] B6AG | 
[V:4] G,6B,2 | 
[V:1] G2^F2F3E | 
[V:2] c2d4c2 | 
[V:3] A3GA4 | 
[V:4] A,G,F,E,D,2A,2 | 
[V:1] G8 | 
[V:2] d6_e2- | 
[V:3] G8- | 
[V:4] B,2G,4C,2- | 
[V:1] z8 | 
[V:2] e2dcB4 | 
[V:3] G8 | 
[V:4] C,D,E,F,G,4 | 
[V:1] c8- | 
[V:2] A4z2a2- | 
[V:3] z8 | 
[V:4] A,2F,4E,D, | 
[V:1] c4d4 | 
[V:2] a2g2f4 | 
[V:3] z8 | 
[V:4] E,4D,4 | 
[V:1] e8- | 
[V:2] e3fg2a2- | 
[V:3] c8- | 
[V:4] C,8 | 
[V:1] e4f4 | 
[V:2] a2g2f2ed | 
[V:3] c4d4 | 
[V:4] z8 | 
[V:1] g6f2 | 
[V:2] c8 | 
[V:3] e8- | 
[V:4] C,8 | 
[V:1] e2dcd4 | 
[V:2] z8 | 
[V:3] e4f4 | 
[V:4] C4B,2D2 | 
[V:1] e2d3cBA | 
[V:2] G4B4 | 
[V:3] g6f2 | 
[V:4] C2B,2G,4 | 
[V:1] G2c4=B2 | 
[V:2] c4G4 | 
[V:3] e2dcd4 | 
[V:4] C,4z4 | 
[V:1] c8 | 
[V:2] z8 | 
[V:3] c8- | 
[V:4] C,8- | 
[V:1] z8 | 
[V:2] g6f2 | 
[V:3] c8- | 
[V:4] C,8 | 
[V:1] g6f2 | 
[V:2] e6d2 | 
[V:3] c8 | 
[V:4] z4C,4 | 
[V:1] e4d4 | 
[V:2] c4z2d2 | 
[V:3] z8 | 
[V:4] C4B,4 | 
[V:1] c8 | 
[V:2] e2f2e2a2- | 
[V:3] z8 | 
[V:4] A,3B,C2F,2- | 
[V:1] c4c4 | 
[V:2] a2gfe4 | 
[V:3] z8 | 
[V:4] F,2G,2A,4 | 
[V:1] d6c2 | 
[V:2] d2f4e2 | 
[V:3] z8 | 
[V:4] D,4B,,2C,2 | 
[V:1] B2AGA4 | 
[V:2] d2g4f2 | 
[V:3] z8 | 
[V:4] G,4D,4 | 
[V:1] G4z2d2- | 
[V:2] e2dc=B3A | 
[V:3] g6f2 | 
[V:4] E,2F,2G,2D,2 | 
[V:1] dcc4=B2 | 
[V:2] c4G4 | 
[V:3] e4d4 | 
[V:4] A,4z4 | 
[V:1] c8 | 
[V:2] z2A3Bcd | 
[V:3] c8 | 
[V:4] F,6E,D, | 
[V:1] z8 | 
[V:2] e2f2g2a2- | 
[V:3] c4c4 | 
[V:4] C,3D,E,2F,2- | 
[V:1] z8 | 
[V:2] agf4e2 | 
[V:3] d6c2 | 
[V:4] F,E,D,C,B,,2C,2 | 
[V:1] z8 | 
[V:2] d2g4^f2 | 
[V:3] B2AGA4 | 
[V:4] D,2_E,2D,4 | 
[V:1] z8 | 
[V:2] g4f4 | 
[V:3] G4z2d2- | 
[V:4] _E,4D,2B,,2 | 
[V:1] z8 | 
[V:2] e4d4 | 
[V:3] d2c4=B2 | 
[V:4] C,4G,4 | 
[V:1] c8 | 
[V:2] e2g4fe | 
[V:3] c8 | 
[V:4] C,8 | 
[V:1] d4B4 | 
[V:2] d3c/B/cBAG | 
[V:3] z8 | 
[V:4] G,8 | 
[V:1] A8 | 
[V:2] F4z4 | 
[V:3] c8 | 
[V:4] A,3G,F,2E,2 | 
[V:1] z8 | 
[V:2] f4g4 | 
[V:3] d4B4 | 
[V:4] D,4E,2G,2 | 
[V:1] c8 | 
[V:2] a4f2e2- | 
[V:3] A8 | 
[V:4] F,3G,A,4 | 
[V:1] B6AG | 
[V:2] efg3fde | 
[V:3] z8 | 
[V:4] G,4z2G,2 | 
[V:1] A2G4FE | 
[V:2] f2e4dc | 
[V:3] c8 | 
[V:4] F,2C,4A,,2 | 
[V:1] D4G4- | 
[V:2] f2g3fed | 
[V:3] B4G4 | 
[V:4] B,,4_E,4 | 
[V:1] G2^FEF4 | 
[V:2] c8 | 
[V:3] A8 | 
[V:4] z2F,3G,A,2 | 
[V:1] G8 |]  
[V:2] d8 |]  
[V:3] G8 |]  
[V:4] B,8 |]  



